X:332
T:Web’s Slow March. RH.332
R:march
S:Rev.R.Harrison’s MS,c1815,Cumbria
O:England
A:Temple Sowerby,Cumbria
Z:vmp.Simon Wilson. Review PJH, 2008.
M:C|
L:1/8
Q:1/2=60
K:G
g4 d4|Bddd Bddd|gdgd gdBG|d2d>d d2z2|!
d3d edcB|AB/c/ d/e/f/g/ “s.qu’s in MS”aaaa|\
c3c dcBA|GA/B/ c/d/e/f/ g2de/f/|!
ggbb ggdd|eegg eecc|dg/g/ gg ff/f/ ff|g2g>g g2z2:|!
|:ee>ee z3e|gfe^d e3f|gggg eeef|g2f2 e3d|!
g2g>g g2bg|f2ff f2z2|f2f>f f2af|g2g>g g2zd/e/4f/4|!
gfge d^cdB|cdef g2d2|e3a g2f2|g2g>g g2z2|]

